packages/core/src/svgs/pros.svg

<svg width="24" height="24" viewBox="0 0 24 24" fill="none" xmlns="http://www.w3.org/2000/svg">
<g clip-path="url(#clip0_31_16490)">
<path d="M0 0H24V24H0V0Z" fill="#333333"/>
<path d="M24 0L0 24V0H24Z" fill="#5901F6"/>
<path fill-rule="evenodd" clip-rule="evenodd" d="M8.41194 15.6182C8.39633 15.6028 8.38076 15.5873 8.36523 15.5719C5.16466 12.3704 4.18237 8.16187 6.1718 6.17244C8.16123 4.18258 12.3689 5.16487 15.5695 8.3663L15.5978 8.39501L14.4411 9.55773L14.4098 9.52601C11.8628 6.97815 8.70423 6.00701 7.35551 7.35615C6.00637 8.7053 6.97751 11.8647 9.52494 14.4122L9.56866 14.4559L8.41194 15.6182Z" fill="url(#paint0_linear_31_16490)"/>
<path fill-rule="evenodd" clip-rule="evenodd" d="M15.588 8.38184L15.6347 8.42812C18.8352 11.6296 19.8175 15.8381 17.8281 17.8275C15.8387 19.8174 11.631 18.8351 8.43039 15.6337L8.4021 15.605L9.55839 14.4423L9.5901 14.474C12.1371 17.0218 15.2957 17.993 16.6444 16.6438C17.9935 15.2947 17.0224 12.1353 14.475 9.58784C14.4604 9.57323 14.4458 9.55866 14.4312 9.54412L15.588 8.38184Z" fill="url(#paint1_linear_31_16490)"/>
</g>
<defs>
<linearGradient id="paint0_linear_31_16490" x1="14.6134" y1="8.45501" x2="8.73294" y2="14.2913" gradientUnits="userSpaceOnUse">
<stop stop-color="#FBFCFA"/>
<stop offset="0.817" stop-color="#9359FD" stop-opacity="0.07"/>
</linearGradient>
<linearGradient id="paint1_linear_31_16490" x1="9.11953" y1="15.5334" x2="15.0741" y2="10.5984" gradientUnits="userSpaceOnUse">
<stop stop-color="#01FDFE"/>
<stop offset="1" stop-color="#01FDFE" stop-opacity="0.06"/>
</linearGradient>
<clipPath id="clip0_31_16490">
<rect width="24" height="24" fill="white"/>
</clipPath>
</defs>
</svg>

<svg xmlns="http://www.w3.org/2000/svg" width="24" height="24" fill="none" viewBox="0 0 24 24"><g clip-path="url(#a)"><path fill="#333" d="M0 0h24v24H0z"/><path fill="#5901F6" d="M24 0 0 24V0z"/><path fill="url(#b)" fill-rule="evenodd" d="m8.412 15.618-.047-.046c-3.2-3.202-4.183-7.41-2.193-9.4s6.197-1.007 9.398 2.194l.028.029-1.157 1.163-.031-.032c-2.547-2.548-5.706-3.519-7.054-2.17-1.35 1.35-.378 4.509 2.169 7.056l.044.044z" clip-rule="evenodd"/><path fill="url(#c)" fill-rule="evenodd" d="m15.588 8.382.047.046c3.2 3.202 4.182 7.41 2.193 9.4s-6.197 1.007-9.398-2.194l-.028-.029 1.156-1.163.032.032c2.547 2.548 5.706 3.519 7.054 2.17 1.35-1.35.378-4.509-2.169-7.056l-.044-.044z" clip-rule="evenodd"/></g><defs><linearGradient id="b" x1="14.613" x2="8.733" y1="8.455" y2="14.291" gradientUnits="userSpaceOnUse"><stop stop-color="#FBFCFA"/><stop offset=".817" stop-color="#9359FD" stop-opacity=".07"/></linearGradient><linearGradient id="c" x1="9.12" x2="15.074" y1="15.533" y2="10.598" gradientUnits="userSpaceOnUse"><stop stop-color="#01FDFE"/><stop offset="1" stop-color="#01FDFE" stop-opacity=".06"/></linearGradient><clipPath id="a"><path fill="#fff" d="M0 0h24v24H0z"/></clipPath></defs></svg>
